X:183
%%etbk:tnset id:58,pos:2,rep:3x,ant:
%%etbk:tnset id:183,pos:3,rep:2x,ant:
%%etbk:wsite http://www.thesession.org/tunes/display/399
%%etbk:skill ?
%%etbk:pldat 2013-10-30T16:27,2013-10-28T18:45,2013-10-26T16:41,2013-10-18T16:32,2013-10-15T18:47,2013-10-10T19:46,2013-10-07T18:03
T: Sligo Maid, The
Z: Piano Box Version by Martin Fleischmann
H: Created 2013-02-19 /  Last Modified 2013-02-19
M: 4/4
L: 1/8
R: reel
K: Ador
|: "am"!1!A2BA !2!B!4!d!3!ef | !5!g!3!e!2!d!1!B !3!A!2!G!1!E!2!F | "G"!3!G2!5!BG !1!DGB!3!G | !1!G3A !3!BG!5!d!3!B |
"am"!1!A2BA !2!B!4!d!3!ef | !5!g!3!e!2!d!1!B !3!A!2!G!1!E!3!G | "G"!5!B3G !4!AB!3!G!2!E | !1!DE!3!GA "am"!5!B!4!A!1!A2:|
|: "am"!2!e2!4!ag !4!aaga | !5!bg!4!a!2!f !4!gfed | "G"!2!e!4!ggf !4!g!3!g!4!ge | !1!de!3!ga !5!bga!3!g |
"am"!2!e2!4!ag !4!aaga | !5!bg!4!a!2!f !4!gfed | "G"!2!e2!4!gg !2!e!1!d!2!Bc | !4!d!2!B!5!g!2!B "am"{d}B!1!AA2 :|
